!!!COA:	Josquin des Prez
!!!CDT:	~1450-1521/08/27
!!!COM: Bosfrin
!!!OTL:	Et trop penser
!!!AGN:	Chanson
!!!SCT:	NJE 27.9
!!!SCA:	New Josquin Edition 27.9
!!!voices:	3
**kern	**kern	**kern
*staff3	*staff2	*staff1
*Ivox	*Ivox	*Ivox
*I"Contra	*I"Tenor	*I"Superius
*I'C	*I'T	*I'S
*clefF4	*clefGv2	*clefG2
*k[b-]	*k[b-]	*k[b-]
*M3/1	*M3/1	*M3/1
*met(C|3)	*met(C|3)	*met(C|3)
=1-	=1-	=1-
1r	0.r	0.r
1r	.	.
1G	.	.
=2	=2	=2
1G	0.r	1r
0B-	.	1r
.	.	1g
=3	=3	=3
1.G	1r	1g
.	1r	0b-
2A\	.	.
1B-	1G	.
=4	=4	=4
0E-	1G	0g
.	0B-	.
1D	.	1f
=5	=5	=5
1.E-i	0G	1g
.	.	1b-
2D\	.	.
1C	1A	1cc
=6	=6	=6
1.BB-	1B-	1.dd
.	0d	.
2C/	.	2cc\
2D\	.	1b-
2E-i\	.	.
=7	=7	=7
1F	0c	1.a
0E-	.	.
.	.	1g
.	1B-	.
.	.	2f/
=8	=8	=8
1F	1A	1.f
0C	0G	.
.	.	2e/
.	.	2e/
.	.	2d/
=9	=9	=9
1c	0.F	0f
0A	.	.
.	.	1r
=10	=10	=10
1.G	0.r	1g
.	.	0b-
2A\	.	.
1B-	.	.
=11	=11	=11
0E-	1G	0g
.	0B-	.
1D	.	1f
=12	=12	=12
1.E-i	0G	1g
.	.	1b-
2D\	.	.
1C	1A	1cc
=13	=13	=13
1BB-	1B-	1.dd
1.B-	0d	.
.	.	2cc\
.	.	1b-
2G\	.	.
=14	=14	=14
1.A	0c	1cc
.	.	1.a
2F\	.	.
1G	1B-	.
.	.	2g/
=15	=15	=15
1E-i	1G	0g
0D	0A	.
.	.	1f#i
=16	=16	=16
0G	0.G	0g
1G	.	1r
=17	=17	=17
0D	0.r	0dd
[1D	.	1dd
=18	=18	=18
2D\]	0d	0a
2E\	.	.
1.F	.	.
.	1d	[1a
2E\	.	.
=19	=19	=19
1D	0A	2a/]
.	.	2b-\
0C	.	1cc
.	1A	1cc
=20	=20	=20
1BB-	1B-	0dd
1.F	0c	.
.	.	1cc
2E\	.	.
=21	=21	=21
1.D	0d	1b-
.	.	0a
2E\	.	.
1F	1c	.
=22	=22	=22
0G	1B-	1g
.	0A	1r
1F#i	.	1r
=23	=23	=23
0G	0G	0dd
[1D	1r	1dd
=24	=24	=24
2D\]	0d	0a
2E\	.	.
1.F	.	.
.	1d	[1a
2E\	.	.
=25	=25	=25
1D	0A	2a/]
.	.	2b-\
0C	.	1cc
.	1A	1cc
=26	=26	=26
1BB-	1B-	0dd
1.F	0c	.
.	.	1cc
2E\	.	.
=27	=27	=27
1.D	0d	1b-
.	.	1.a
2E\	.	.
1F	1c	.
.	.	2g/
=28	=28	=28
1G	1B-	1.g
0D	0A	.
.	.	2f#i/
.	.	2f#i/
.	.	2e/
=29	=29	=29
1G	0.G	0g
0B-	.	.
.	.	1r
=30	=30	=30
1.G	0.r	1g
.	.	0b-
2A\	.	.
1B-	.	.
=31	=31	=31
1.E-	1G	0g
.	0B-	.
2C/	.	.
1D	.	1f
=32	=32	=32
1.E-i	0G	1g
.	.	1b-
2D\	.	.
1C	1A	1cc
=33	=33	=33
1.BB-	1B-	1.dd
.	0d	.
2C/	.	2cc\
2D\	.	1b-
2E-i\	.	.
=34	=34	=34
1F	0c	1a
0E-i	.	1.g
.	1B-	.
.	.	2f/
=35	=35	=35
1F	1A	1.f
0C	0G	.
.	.	2d/
.	.	1e
=36	=36	=36
1.c	0.F	0f
2B-\	.	.
1A	.	1r
=37	=37	=37
1.G	0.r	1g
.	.	0b-
2A\	.	.
1B-	.	.
=38	=38	=38
0E-	1G	0g
.	0B-	.
1D	.	1f
=39	=39	=39
1.E-i	0G	1g
.	.	1b-
2D\	.	.
1C	1A	1cc
=40	=40	=40
1BB-	1B-	1.dd
1.B-	0d	.
.	.	2cc\
.	.	1b-
2G\	.	.
=41	=41	=41
1.A	0c	1cc
.	.	1.a
2F\	.	.
1G	1B-	.
.	.	2g/
=42	=42	=42
1E-i	1G	0g
0D	0A	.
.	.	1f#i
=43	=43	=43
0.GGl	0.Gl	0.gl
==	==	==
*-	*-	*-
!!!RDF**kern: l=long note in original notation
!!!RDF**kern: i=editorial accidental
!!!RDF**kern: V=start of tuplet marker
!!!RDF**kern: Z=end of tuplet marker
!!!ENC:	Victoria Chang 2012/03/27
!!!END:	2012/03/27/
!!!EED:	Jesse Rodin
!!!EEV:	2012/03/28/
!!attribution-level@Jos: 4 (questionable)
!!!ONB:	Translated from MusicXML and edited on 2012/03/28/ by Craig Sapp
!!muse2ps: C^@{COA}?\n@{SCT}^i2I150v85,85,150Q16
